X: 6
T: PLUME
M: 4/4
L: 1/8
Q:1/4=60
K:C 
|:g/2a/2g/2f/2e/2f/2e/2d/2 ce/2g/2af|dfBd c/2B/2c/2e/2g2|g/2a/2g/2f/2e/2
f/2e/2d/2 ce/2g/2af|dfBd c/2B/2c/2d/2c2:|!
|:DDBB A/2G/2^F/2E/2D/2D/2B,/2D/2|C/2C/2A,/2C/2B,/2B,/2G,/2B,/2 A,D/2C/2
B,G,|DDBB A/2G/2^F/2E/2D/2D/2B,/2D/2|C/2C/2A,/2C/2B,/2B,/2G,/2B,/2 A,^F,
G,2:|
